lending/img/email-rass/email-cabinet.svg

<svg width="24" height="24" viewBox="0 0 24 24" fill="none" xmlns="http://www.w3.org/2000/svg">
<path opacity="0.227238" fill-rule="evenodd" clip-rule="evenodd" d="M24 21.0964C24 19.1673 22.6869 17.4859 20.8158 17.0185L16.2181 15.8695L16.2243 15.2833C16.2296 14.7569 16.4483 14.2325 16.8468 13.7958C18.1591 12.3574 18.7991 10.9712 19.0069 9.35909C19.085 8.75304 19.0997 8.29281 19.0997 7.25245C19.0997 3.27444 15.9693 0.0724969 12.0236 0C8.03086 0.0724936 4.90032 3.27426 4.90032 7.25147C4.90032 8.29184 4.91499 8.75207 4.99311 9.35811C5.20091 10.9702 5.84088 12.3564 7.15313 13.7947C7.55171 14.2315 7.77044 14.7559 7.77571 15.2817L7.78189 15.8685L3.18407 17.0175C1.31261 17.4864 0 19.1677 0 21.0964V22.7143C0 23.4244 0.575634 24 1.28571 24H22.7143C23.4244 24 24 23.4244 24 22.7143V21.0964ZM20.2696 19.5839C21.0027 19.7671 21.5172 20.426 21.5172 21.182V21.5172H2.48276V21.182C2.48276 20.4259 2.99753 19.7666 3.73123 19.5828L8.61295 18.3628C9.63691 18.1074 10.3517 17.1815 10.3403 16.1262L10.3315 15.286C10.3195 14.0978 9.84557 12.9616 9.02493 12.0623C8.06062 11.0054 7.64328 10.1014 7.50153 9.00171C7.44163 8.53702 7.42917 8.14605 7.42917 7.20713C7.42917 4.60514 9.45829 2.5299 12.0238 2.48276C14.5418 2.5299 16.5708 4.60526 16.5708 7.20812C16.5708 8.14704 16.5584 8.538 16.4985 9.00269C16.3567 10.1024 15.9394 11.0064 14.975 12.0633C14.1544 12.9626 13.6805 14.0988 13.6685 15.2876L13.6597 16.1276C13.6483 17.1833 14.3629 18.1084 15.3876 18.364L20.2696 19.5839Z" fill="white"/>
</svg>

<svg width="24" height="24" fill="none" xmlns="http://www.w3.org/2000/svg"><path opacity=".227" fill-rule="evenodd" clip-rule="evenodd" d="M24 21.096a4.204 4.204 0 00-3.184-4.078l-4.598-1.149.006-.586c.006-.526.224-1.05.623-1.487 1.312-1.439 1.952-2.825 2.16-4.437.078-.606.093-1.066.093-2.107 0-3.978-3.13-7.18-7.076-7.252A7.214 7.214 0 004.9 7.251c0 1.04.015 1.501.093 2.107.208 1.612.848 2.998 2.16 4.437.399.437.617.96.623 1.487l.006.586-4.598 1.15A4.205 4.205 0 000 21.095v1.618C0 23.424.576 24 1.286 24h21.428c.71 0 1.286-.576 1.286-1.286v-1.618zm-3.73-1.512a1.647 1.647 0 011.247 1.598v.335H2.483v-.335c0-.756.515-1.415 1.248-1.6l4.882-1.22a2.28 2.28 0 001.727-2.236l-.008-.84c-.013-1.188-.486-2.324-1.307-3.224-.964-1.057-1.382-1.96-1.523-3.06-.06-.465-.073-.856-.073-1.795 0-2.602 2.03-4.677 4.595-4.724 2.518.047 4.547 2.122 4.547 4.725 0 .939-.013 1.33-.073 1.795-.141 1.1-.559 2.003-1.523 3.06-.82.9-1.294 2.036-1.306 3.225l-.01.84a2.28 2.28 0 001.729 2.236l4.882 1.22z" fill="#fff"/></svg>
